Adwaita++/actions/22/discrete.svg

<svg fill="none" height="22" viewBox="0 0 22 22" width="22" xmlns="http://www.w3.org/2000/svg">
  <path clip-rule="evenodd" d="m19 5c0-1.10457-.8954-2-2-2h-4.5455v9.4545h-9.4545v4.5455c0 1.1046.89543 2 2 2h7.4545 4.5455c1.1046 0 2-.8954 2-2v-4.5455z" fill="#444" fill-rule="evenodd"/>
</svg>

<svg xmlns="http://www.w3.org/2000/svg" fill="none" width="22" height="22" viewBox="0 0 22 22">
 <path fill="#444" fill-rule="evenodd" d="M19 5C19 3.89543 18.1046 3 17 3H12.4545V12.4545H3V17C3 18.1046 3.89543 19 5 19H12.4545H17C18.1046 19 19 18.1046 19 17V12.4545V5Z" clip-rule="evenodd"/>
</svg>
